.local/share/icons/Gruvbox-Plus-Dark/panel/22/weather-snow-rain.svg

<svg xmlns="http://www.w3.org/2000/svg" width="22" height="22" version="1.1">
 <defs>
  <style id="current-color-scheme" type="text/css">
   .ColorScheme-Text { color:#ebdbb2; } .ColorScheme-Highlight { color:#458588; }
  </style>
 </defs>
 <g transform="translate(-129.00001,-681.28994)">
  <path style="fill:currentColor" class="ColorScheme-Text" d="M 11 3.0039062 C 8.92893 3.0039062 7.16529 4.2718263 6.40625 6.0664062 C 4.47842 6.3530063 3 7.9963263 3 10.003906 C 3 12.213046 4.79086 14.003906 7 14.003906 L 15.5 14.003906 C 17.433 14.003906 19 12.436906 19 10.503906 C 19 8.7073662 17.64921 7.2352063 15.90625 7.0351562 C 15.45168 4.7417662 13.42687 3.0039062 11 3.0039062 z M 6.4785156 14.992188 A 0.50005 0.50005 0 0 0 6.0527344 15.275391 L 5.0527344 17.275391 A 0.50006306 0.50006306 0 0 0 5.9472656 17.722656 L 6.9472656 15.722656 A 0.50005 0.50005 0 0 0 6.4785156 14.992188 z M 9.4785156 14.994141 A 0.50005 0.50005 0 0 0 9.0527344 15.277344 L 8.0527344 17.277344 A 0.50006306 0.50006306 0 1 0 8.9472656 17.724609 L 9.9472656 15.724609 A 0.50005 0.50005 0 0 0 9.4785156 14.994141 z M 14 15 A 1 1 0 0 0 13 16 A 1 1 0 0 0 14 17 A 1 1 0 0 0 15 16 A 1 1 0 0 0 14 15 z M 12 17 A 1 1 0 0 0 11 18 A 1 1 0 0 0 12 19 A 1 1 0 0 0 13 18 A 1 1 0 0 0 12 17 z M 16 17 A 1 1 0 0 0 15 18 A 1 1 0 0 0 16 19 A 1 1 0 0 0 17 18 A 1 1 0 0 0 16 17 z" transform="translate(129.00001,681.28994)"/>
 </g>
</svg>

<svg width="22" height="22" version="1.1" xmlns="http://www.w3.org/2000/svg">
  <defs>
    <style id="current-color-scheme" type="text/css">.ColorScheme-Text { color:#ebdbb2; } .ColorScheme-Highlight { color:#458588; } .ColorScheme-NeutralText { color:#fe8019; } .ColorScheme-PositiveText { color:#689d6a; } .ColorScheme-NegativeText { color:#fb4934; }</style>
  </defs>
  <path class="ColorScheme-Text" d="m11 3.004c-2.071 0-3.835 1.268-4.594 3.062-1.928 0.2866-3.406 1.93-3.406 3.937 0 2.209 1.791 4 4 4h8.5c1.933 0 3.5-1.567 3.5-3.5 0-1.797-1.351-3.269-3.094-3.469-0.4546-2.293-2.479-4.031-4.906-4.031zm-4.521 11.99a0.5 0.5 0 0 0-0.4258 0.2832l-1 2a0.5001 0.5001 0 0 0 0.8945 0.4473l1-2a0.5 0.5 0 0 0-0.4688-0.7305zm3 0.001953a0.5 0.5 0 0 0-0.4258 0.2832l-1 2a0.5001 0.5001 0 1 0 0.8945 0.4473l1-2a0.5 0.5 0 0 0-0.4688-0.7305zm4.521 0.005859a1 1 0 0 0-1 1 1 1 0 0 0 1 1 1 1 0 0 0 1-1 1 1 0 0 0-1-1zm-2 2a1 1 0 0 0-1 1 1 1 0 0 0 1 1 1 1 0 0 0 1-1 1 1 0 0 0-1-1zm4 0a1 1 0 0 0-1 1 1 1 0 0 0 1 1 1 1 0 0 0 1-1 1 1 0 0 0-1-1z" fill="currentColor"/>
</svg>
